X:1
T:Aldridges -- Hornpipe
R:hornpipe
B:Cole's 1000 Fiddle Tunes
S: Bob Puckette <BobP:at:workcom.com> 2003-3-7
M:2/4
L:1/16
K:A
uE2|.A2.A2 Acec|defg aecA|BABc dcBA|GABA GEFG|
.A2.A2 Acec|BABc .B2.a2|gfeg fe^df|e2e2e2:|
|:(ucd)|"0"ecec .e(bab)|fedc dcBA|GABc defg|(bab).f .e2.E2|
AGAc BABd|cAce aecA|BABc dcBG|A2A2A2:|
